assets/footerLogo.svg

<svg width="67" height="20" viewBox="0 0 67 20" fill="none" xmlns="http://www.w3.org/2000/svg">
<g clip-path="url(#clip0)">
<path d="M8.37459 0H0V20H8.37459V0Z" fill="white"/>
<path d="M8.37459 10H0L8.37459 0H16.7508L8.37459 10Z" fill="#FF513F"/>
<path d="M8.37459 10H0L8.37459 20H16.7508L8.37459 10Z" fill="#FFC856"/>
<path d="M25.1239 10H16.7493L25.1239 20H33.5001L25.1239 10Z" fill="#007550"/>
<path d="M25.1239 0L16.7493 10H25.1239L33.5001 0H25.1239Z" fill="white"/>
<path d="M41.8746 10H33.5L41.8746 20H50.2508L41.8746 10Z" fill="#FF513F"/>
<path d="M41.8746 0L33.5 10H41.8746L50.2508 0H41.8746Z" fill="#FFC856"/>
<path d="M54.4372 0H46.0626V20H54.4372V0Z" fill="white"/>
<path d="M62.8134 15.0008L66.9999 10L58.6253 0H50.2507L57.7043 8.89995L62.8134 15.0008Z" fill="#FF513F"/>
<path d="M58.6253 10H66.9999L58.6253 20H50.2507L58.6253 10Z" fill="#007550"/>
</g>
<defs>
<clipPath id="clip0">
<rect width="67" height="20" fill="white"/>
</clipPath>
</defs>
</svg>

<svg xmlns="http://www.w3.org/2000/svg" width="67" height="20" fill="none" xmlns:v="https://vecta.io/nano"><g clip-path="url(#A)"><path d="M8.375 0H0v20h8.375V0z" fill="#fff"/><path d="M8.375 10H0L8.375 0h8.376L8.375 10z" fill="#ff513f"/><path d="M8.375 10H0l8.375 10h8.376L8.375 10z" fill="#ffc856"/><path d="M25.124 10H16.75l8.375 10H33.5l-8.376-10z" fill="#007550"/><path d="M25.124 0L16.75 10h8.375L33.5 0h-8.376z" fill="#fff"/><path d="M41.875 10H33.5l8.375 10h8.376l-8.376-10z" fill="#ff513f"/><path d="M41.875 0L33.5 10h8.375L50.25 0h-8.376z" fill="#ffc856"/><path d="M54.437 0h-8.375v20h8.375V0z" fill="#fff"/><path d="M62.813 15L67 10 58.625 0H50.25l12.563 15z" fill="#ff513f"/><path d="M58.625 10H67l-8.375 10H50.25l8.375-10z" fill="#007550"/></g><defs><clipPath id="A"><path fill="#fff" d="M0 0h67v20H0z"/></clipPath></defs></svg>
